X: 8498
T: Creamery Cross
R: reel
M: 4/4
K: Gmajor
|:DEG G2 ABd|e2 dB efgB|AGE A2 GAB|AGAB dBAG|
DEG G2 ABd|e2 dB efgb|age g2 ega|1 gedB AGED:|2 gedB AGEG||
|:AAAB AGEG|BddB AGEG|AAAB AGEG|DEGA GDEG|
AAAB AGEG|BddB degb|age g2 ega|1 gedB AGEG:|2 gedB AGED||

